assets/Bagel/Flat/bagel_flat.svg

<svg width="32" height="32" viewBox="0 0 32 32" fill="none" xmlns="http://www.w3.org/2000/svg">
<path d="M28.9929 16.9536C28.9929 22.1702 24.7501 25.3299 19.5435 25.3299H19.4342C14.3269 25.3299 10.1537 22.3391 9.98479 17.2716V20.2326C9.98479 20.3419 9.97485 20.4412 9.97485 20.5505C9.97485 25.7671 14.2176 29.9999 19.4243 29.9999H19.5336C24.7501 29.9999 28.983 25.7572 28.983 20.5505C28.983 20.4412 28.983 20.3419 28.973 20.2326H28.983V16.9536H28.9929Z" fill="#E19747"/>
<path d="M19.4838 8.05071L21.2027 7.95135C22.0076 7.90167 22.8025 8.16001 23.4285 8.6767L24.7599 9.75975C24.8593 9.83924 24.9587 9.9088 25.058 9.97835L26.4988 10.9024C27.1744 11.3396 27.6713 12.0153 27.87 12.7903L28.3072 14.4497C28.337 14.5689 28.3767 14.6881 28.4165 14.7974L29.0425 16.3972C29.3306 17.1523 29.3306 17.9771 29.0425 18.7322L28.4165 20.332C28.3767 20.4512 28.337 20.5605 28.3072 20.6797L27.87 22.3391C27.6613 23.1141 27.1744 23.7898 26.4988 24.227L25.058 25.151C24.9587 25.2206 24.8593 25.2902 24.7599 25.3696L23.4285 26.4527C22.8025 26.9595 22.0076 27.2178 21.2027 27.1781L19.4838 27.0787C19.3645 27.0688 19.2354 27.0688 19.1161 27.0787L17.3971 27.1781C16.5923 27.2277 15.7974 26.9694 15.1714 26.4527L13.84 25.3696C13.7406 25.2902 13.6412 25.2206 13.5419 25.151L12.1011 24.227C11.4254 23.7898 10.9286 23.1141 10.7299 22.3391L10.2927 20.6797C10.2629 20.5605 10.2232 20.4413 10.1834 20.332L9.55742 18.7421C9.26927 17.987 9.26927 17.1623 9.55742 16.4071L10.1834 14.8074C10.2232 14.6881 10.2629 14.5788 10.2927 14.4596L10.7299 12.8003C10.9386 12.0252 11.4254 11.3496 12.1011 10.9124L13.5419 9.98829C13.6412 9.91873 13.7406 9.84918 13.84 9.76969L15.1714 8.68663C15.7974 8.17988 16.5923 7.92154 17.3971 7.96129L19.1161 8.06065C19.2354 8.05071 19.3546 8.05071 19.4838 8.05071Z" fill="#FFE5D9"/>
<path d="M20.0502 21.0076H19.0467C17.7152 21.0076 16.6421 19.9246 16.6421 18.6031C16.6421 17.2716 17.7251 16.1985 19.0467 16.1985H20.0502C21.3817 16.1985 22.4548 17.2815 22.4548 18.6031C22.4648 19.9246 21.3817 21.0076 20.0502 21.0076Z" fill="#6D4534"/>
<path d="M8.41476 2.95337L8.3154 2.99312C3.63541 5.27846 1.66803 10.9421 3.95337 15.6321C3.99312 15.7314 4.0428 15.8209 4.09248 15.9103C6.45732 20.3915 11.9918 22.2298 16.5824 20.004L16.6817 19.9543C21.3717 17.6789 23.3291 12.0053 21.0537 7.3154C18.7783 2.63541 13.1047 0.668031 8.41476 2.95337Z" fill="#F3AD61"/>
<path d="M17.9039 6.63988C17.9039 6.91426 17.6814 7.13669 17.4071 7.13669C17.1327 7.13669 16.9102 6.91426 16.9102 6.63988C16.9102 6.3655 17.1327 6.14307 17.4071 6.14307C17.6814 6.14307 17.9039 6.3655 17.9039 6.63988Z" fill="#402A32"/>
<path d="M5.56298 12.0451C5.83736 12.0451 6.05979 11.8227 6.05979 11.5483C6.05979 11.2739 5.83736 11.0515 5.56298 11.0515C5.28859 11.0515 5.06616 11.2739 5.06616 11.5483C5.06616 11.8227 5.28859 12.0451 5.56298 12.0451Z" fill="#402A32"/>
<path d="M12.4986 18.9906C12.773 18.9906 12.9954 18.7681 12.9954 18.4938C12.9954 18.2194 12.773 17.9969 12.4986 17.9969C12.2242 17.9969 12.0018 18.2194 12.0018 18.4938C12.0018 18.7681 12.2242 18.9906 12.4986 18.9906Z" fill="#402A32"/>
<path d="M10.869 7.92155C11.1434 7.92155 11.3659 7.69911 11.3659 7.42473C11.3659 7.15035 11.1434 6.92792 10.869 6.92792C10.5947 6.92792 10.3722 7.15035 10.3722 7.42473C10.3722 7.69911 10.5947 7.92155 10.869 7.92155Z" fill="#402A32"/>
<path d="M14.6348 15.6819C14.6348 15.9563 14.4124 16.1787 14.138 16.1787C13.8636 16.1787 13.6412 15.9563 13.6412 15.6819C13.6412 15.4075 13.8636 15.1851 14.138 15.1851C14.4124 15.1851 14.6348 15.4075 14.6348 15.6819Z" fill="#402A32"/>
<path d="M8.36507 13.6847C8.63945 13.6847 8.86188 13.4622 8.86188 13.1879C8.86188 12.9135 8.63945 12.691 8.36507 12.691C8.09069 12.691 7.86826 12.9135 7.86826 13.1879C7.86826 13.4622 8.09069 13.6847 8.36507 13.6847Z" fill="#402A32"/>
<path d="M17.1288 9.91875C17.1288 10.1931 16.9064 10.4156 16.632 10.4156C16.3576 10.4156 16.1352 10.1931 16.1352 9.91875C16.1352 9.64437 16.3576 9.42194 16.632 9.42194C16.9064 9.42194 17.1288 9.64437 17.1288 9.91875Z" fill="#402A32"/>
<path d="M12.4986 5.10959C12.773 5.10959 12.9955 4.88716 12.9955 4.61278C12.9955 4.3384 12.773 4.11597 12.4986 4.11597C12.2243 4.11597 12.0018 4.3384 12.0018 4.61278C12.0018 4.88716 12.2243 5.10959 12.4986 5.10959Z" fill="#FFF3D7"/>
<path d="M7.59008 7.13663C7.86446 7.13663 8.08689 6.9142 8.08689 6.63982C8.08689 6.36544 7.86446 6.14301 7.59008 6.14301C7.31569 6.14301 7.09326 6.36544 7.09326 6.63982C7.09326 6.9142 7.31569 7.13663 7.59008 7.13663Z" fill="#FFF3D7"/>
<path d="M17.9039 16.4568C17.9039 16.7312 17.6815 16.9536 17.4071 16.9536C17.1327 16.9536 16.9103 16.7312 16.9103 16.4568C16.9103 16.1825 17.1327 15.96 17.4071 15.96C17.6815 15.96 17.9039 16.1825 17.9039 16.4568Z" fill="#FFF3D7"/>
<path d="M19.4441 12.0451C19.7185 12.0451 19.9409 11.8226 19.9409 11.5483C19.9409 11.2739 19.7185 11.0515 19.4441 11.0515C19.1697 11.0515 18.9473 11.2739 18.9473 11.5483C18.9473 11.8226 19.1697 12.0451 19.4441 12.0451Z" fill="#FFF3D7"/>
<path d="M8.08689 16.4568C8.08689 16.7312 7.86446 16.9536 7.59008 16.9536C7.31569 16.9536 7.09326 16.7312 7.09326 16.4568C7.09326 16.1825 7.31569 15.96 7.59008 15.96C7.86446 15.96 8.08689 16.1825 8.08689 16.4568Z" fill="#FFF3D7"/>
<path d="M8.42467 10.2864C8.69905 10.2864 8.92148 10.0639 8.92148 9.78954C8.92148 9.51516 8.69905 9.29272 8.42467 9.29272C8.15029 9.29272 7.92786 9.51516 7.92786 9.78954C7.92786 10.0639 8.15029 10.2864 8.42467 10.2864Z" fill="#FFF3D7"/>
<path d="M17.0793 13.3169C17.0793 13.5913 16.8568 13.8138 16.5824 13.8138C16.3081 13.8138 16.0856 13.5913 16.0856 13.3169C16.0856 13.0426 16.3081 12.8201 16.5824 12.8201C16.8568 12.8201 17.0793 13.0426 17.0793 13.3169Z" fill="#FFF3D7"/>
<path d="M10.73 16.1289C11.0044 16.1289 11.2268 15.9065 11.2268 15.6321C11.2268 15.3577 11.0044 15.1353 10.73 15.1353C10.4556 15.1353 10.2332 15.3577 10.2332 15.6321C10.2332 15.9065 10.4556 16.1289 10.73 16.1289Z" fill="#FFF3D7"/>
<path d="M14.764 7.47441C14.764 7.7488 14.5416 7.97123 14.2672 7.97123C13.9928 7.97123 13.7704 7.7488 13.7704 7.47441C13.7704 7.20003 13.9928 6.9776 14.2672 6.9776C14.5416 6.9776 14.764 7.20003 14.764 7.47441Z" fill="#FFF3D7"/>
<path d="M13.0947 13.9627H12.0911C10.7596 13.9627 9.68652 12.8797 9.68652 11.5581C9.68652 10.2267 10.7696 9.15356 12.0911 9.15356H13.0947C14.4261 9.15356 15.4992 10.2366 15.4992 11.5581C15.5092 12.8797 14.4261 13.9627 13.0947 13.9627Z" fill="#6D4534"/>
</svg>

<svg xmlns="http://www.w3.org/2000/svg" width="32" height="32" fill="none"><path fill="#E19747" d="M28.993 16.954c0 5.216-4.243 8.376-9.45 8.376h-.109c-5.107 0-9.28-2.99-9.45-8.058v2.96c0 .11-.01.21-.01.319 0 5.216 4.244 9.449 9.45 9.449h.11c5.216 0 9.449-4.243 9.449-9.45 0-.109 0-.208-.01-.317h.01v-3.28h.01Z"/><path fill="#FFE5D9" d="m19.484 8.05 1.719-.099c.805-.05 1.6.209 2.226.726l1.33 1.083c.1.08.2.149.299.218l1.44.924a3.215 3.215 0 0 1 1.372 1.888l.437 1.66c.03.119.07.238.11.347l.625 1.6c.289.755.289 1.58 0 2.335l-.626 1.6c-.04.12-.079.229-.109.348l-.437 1.66a3.257 3.257 0 0 1-1.371 1.887l-1.441.924c-.1.07-.199.14-.298.219l-1.332 1.083a3.285 3.285 0 0 1-2.225.725l-1.72-.1a2.28 2.28 0 0 0-.367 0l-1.719.1c-.805.05-1.6-.209-2.226-.725L13.84 25.37c-.1-.08-.199-.15-.298-.219l-1.44-.924a3.215 3.215 0 0 1-1.372-1.888l-.437-1.66c-.03-.118-.07-.238-.11-.347l-.626-1.59a3.262 3.262 0 0 1 0-2.335l.626-1.6c.04-.119.08-.228.11-.347l.437-1.66a3.256 3.256 0 0 1 1.371-1.888l1.44-.924c.1-.07.2-.139.299-.218l1.331-1.083a3.285 3.285 0 0 1 2.226-.726l1.72.1c.118-.01.238-.01.367-.01Z"/><path fill="#6D4534" d="M20.05 21.008h-1.003a2.406 2.406 0 0 1-2.405-2.405 2.406 2.406 0 0 1 2.405-2.405h1.003a2.406 2.406 0 0 1 2.405 2.405c.01 1.322-1.073 2.405-2.405 2.405Z"/><path fill="#F3AD61" d="m8.415 2.953-.1.04c-4.68 2.285-6.647 7.95-4.362 12.64.04.098.09.188.14.277 2.364 4.482 7.899 6.32 12.49 4.094l.099-.05c4.69-2.275 6.647-7.949 4.372-12.639-2.276-4.68-7.95-6.647-12.64-4.362Z"/><path fill="#402A32" d="M17.904 6.64a.497.497 0 1 1-.994 0 .497.497 0 0 1 .994 0ZM5.563 12.045a.497.497 0 1 0 0-.993.497.497 0 0 0 0 .993ZM12.499 18.99a.497.497 0 1 0 0-.993.497.497 0 0 0 0 .994ZM10.869 7.922a.497.497 0 1 0 0-.994.497.497 0 0 0 0 .994ZM14.635 15.682a.497.497 0 1 1-.994 0 .497.497 0 0 1 .994 0ZM8.365 13.685a.497.497 0 1 0 0-.994.497.497 0 0 0 0 .994ZM17.129 9.919a.497.497 0 1 1-.994 0 .497.497 0 0 1 .994 0Z"/><path fill="#FFF3D7" d="M12.499 5.11a.497.497 0 1 0 0-.994.497.497 0 0 0 0 .994ZM7.59 7.137a.497.497 0 1 0 0-.994.497.497 0 0 0 0 .994ZM17.904 16.457a.497.497 0 1 1-.994 0 .497.497 0 0 1 .994 0ZM19.444 12.045a.497.497 0 1 0 0-.994.497.497 0 0 0 0 .994ZM8.087 16.457a.497.497 0 1 1-.994 0 .497.497 0 0 1 .994 0ZM8.425 10.286a.497.497 0 1 0 0-.993.497.497 0 0 0 0 .993ZM17.08 13.317a.497.497 0 1 1-.995 0 .497.497 0 0 1 .994 0ZM10.73 16.129a.497.497 0 1 0 0-.994.497.497 0 0 0 0 .994ZM14.764 7.474a.497.497 0 1 1-.994 0 .497.497 0 0 1 .994 0Z"/><path fill="#6D4534" d="M13.095 13.963H12.09a2.406 2.406 0 0 1-2.404-2.405 2.407 2.407 0 0 1 2.404-2.404h1.004a2.406 2.406 0 0 1 2.404 2.404c.01 1.322-1.073 2.405-2.404 2.405Z"/></svg>
